X:1722
T:Bill Ellis' Hornpipe
M:C|
L:1/8
N:"collected by J. O'Neill"
B:O'Neill's 1722
R:Hornpipe
Z:"Transcribed by Bob Safranek, rjs@gsp.org"
K:A
  c>d | e>^de>c a>ga>e | c'>bc'>e a>ga>e | f>gf>e d>cB>A | (3FGB (3egb e'2 c>d |
      e>^de>c a>ga>e | c'>bc'>e a>ga>e | (3fag (3fed c>BA>G | B2 A2 A2 :|
|: B>c | d>cd>B (3bag (3fed | c>Bc>A (3agf (3edc | B>AB>d (3gfe (3dcB | A>ce>f e2 c>d |
       | e>^de>c a>ga>e | c'>bc'>e a>ga>e (3fag (3fed c>BA>G | B2 A2 A2 :|


